!!!!SEGMENT: pl-kk--kk-i-40--012-003_croce-giovanni--missa-decantabat-populq-sanctus.krn
!!!cenid: 16xx:1325
!!!COM: Croce, Giovanni
!!!COM-rismid: pe30000764
!!!CDT: 1557-1609/05/15
!!!CNT: Italian
!!!OTL: Missa Decantabat Populq – Sanctus
!!!PDT:
!!!AGN: Sacred; Mass
!!!SMS-siglum: PL-Kk
!!!SMS-shelfmark: Kk.I.40
!!!SMS-shelfwork: 012-003 M
!!!SMS-variant:
!!!SMS-altvar:
!!!NIFC-rismid: 1001154535
!!!URL-scan: http://repozytorium.nifc.pl/skany/pl-kk-nut--i-40
!!!ONB-nifc: UWAGA: części Mszy: 1. Kyrie, 2. Et in terra, 3. Sanctus, 4. Agnus Dei. Skan 0016-0017
**kern	**text
*I"Baſso Ripieno.	*
*I'B rip	*
*clefF4	*
*k[b-]	*
*g:	*
*M2/1	*
*met(c|)	*
=1-	=1-
!LO:TX:t=P:problem:oddech/cezura na różnej wysokości:global	!
!LO:TX:t=P:problem:znaki: B- nad BB-	!
0r	.
=2-	=2-
!LO:TX:t=P:problem:kreska pseudotaktowa	!
1r	.
1D	San-
=3-	=3-
1.G	.
*2\right	*
!LO:TX:t=P:problem:kreska pseudotaktowa	!
2F#X\	.
=4-	=4-
*lig	*
1G	.
1D	-ctus
*Xlig	*
=5-	=5-
!LO:TX:t=P:problem:kreska pseudotaktowa	!
1GG,	.
0r	.
=6-	=6-
.	.
*	*ij
1D	San-
=7-	=7-
2.G\	.
!LO:TX:t=P:problem:kreska pseudotaktowa	!
4Fny\	.
1E-X	.
=8-	=8-
!LO:TX:t=P:problem:kreska pseudotaktowa	!
1D,	-ctus
*	*Xij
2r	.
2.G\	Do-
=9-	=9-
.	.
4G\	-mi-
!LO:TX:t=P:problem:kreska pseudotaktowa	!
2F#X\	-n(us)
2G\	DE-
2G\	-us
=10-	=10-
1.A	Sab-
!LO:TX:t=P:problem:kreska pseudotaktowa	!
2A\	-ba-
=11-	=11-
2D,/	-oth
*	*ij
2.G\	Do-
4G\	-mi-
!LO:TX:t=P:problem:kreska pseudotaktowa	!
2Fny\	-ne
=12-	=12-
2E-X\	DE-
2C/	-us
2.D\	Sab-
4D\	-ba-
=13-	=13-
!LO:TX:t=P:problem:kreska pseudotaktowa	!
1GG	-oth
*	*Xij
!LO:LB:g=original	!
!LO:TX:t=P:problem:kreska pseudotaktowa	!
1r	.
=14-	=14-
(>2GG/	Ple-
!LO:TX:t=P:problem:kreska pseudotaktowa	!
2G\)	.
2G\	-ni
2G\	sunt
=15-	=15-
2.En\	cae-
4D/	.
!LO:TX:t=P:problem:kreska pseudotaktowa	!
1C,	-li
=16-	=16-
2.F\	cae-
4G\	.
2A\	-li
2F\	et
=17-	=17-
0B-	ter-
=18-	=18-
2F,\	-ra
2.F\	glo-
4F\	-ri-
!LO:TX:t=P:problem:kreska pseudotaktowa	!
2F\	-a
=19-	=19-
2.E-X\	.
4D/	Tu-
1C	.
=20-	=20-
!LO:TX:t=P:problem:kreska pseudotaktowa	!
0GG,	-a
=21-	=21-
2r	.
2D\	O-
2.G\	-san-
!LO:TX:t=P:problem:kreska pseudotaktowa	!
4F\	.
=22-	=22-
1E-X	-na
!LO:TX:t=P:problem:kreska pseudotaktowa	!
1D	.
=23-	=23-
0r	.
=24-	=24-
2r	.
!LO:TX:t=P:problem:kreska pseudotaktowa	!
2D\	in
2.G\	ex-
4F\	-cel-
=25-	=25-
4E-X\	.
4D\	.
!LO:SIC:v:t=custos D	!
!LO:TX:t=P:problem:kreska pseudotaktowa	!
2C/	.
!LO:LB:g=original	!
1D	-sis
=26-	=26-
2GG,/	.
1G	in
!LO:TX:t=P:problem:kreska pseudotaktowa	!
2G\	ex-
=27-	=27-
0D	-cel-
=28-	=28-
!LO:TX:t=P:problem:kreska pseudotaktowa	!
1GG	-sis
0r	.
=29-	=29-
.	.
!LO:TX:t=P:problem:kreska pseudotaktowa	!
!LO:N:vis=1	!
1r	.
=30-	=30-
2r	.
1D	Be-
!LO:TX:t=P:problem:kreska pseudotaktowa	!
2D\	-ne-
=31-	=31-
1BB-	-dic-
!LO:TX:t=P:problem:kreska pseudotaktowa	!
1AA	-tus
=32-	=32-
!LO:N:vis=00	!
00r	.
=33-	=33-
.	.
=34-	=34-
2r	.
!LO:TX:t=P:problem:kreska pseudotaktowa	!
2D\	in
2F\	No-
!LO:TX:t=P:problem:kreska pseudotaktowa	!
2G\	-mi-
=35-	=35-
!LO:TX:t=P:problem:kreska pseudotaktowa	!
1D	-ne
00r	.
=36-	=36-
.	.
=37-	=37-
.	.
!LO:TX:t=P:problem:kreska pseudotaktowa	!
1r	.
=38-	=38-
2r	.
2G\	O-
1G	-san-
=39-	=39-
!LO:TX:t=P:problem:kreska pseudotaktowa	!
1D	-na
0r	.
=40-	=40-
.	.
2r	.
!LO:TX:t=P:problem:kreska pseudotaktowa	!
2D\	in
=41-	=41-
2.G\	ex
4F\	.
4E-X\	cel-
4D\	.
2C/	-sis
=42-	=42-
1D	.
!LO:TX:t=P:problem:kreska pseudotaktowa	!
1GG	.
=43-	=43-
1r	.
1D	in
=44-	=44-
1.G	ex-
2G\	-cel-
=45-	=45-
0D	-ſis.
=46-	=46-
0GG;>	.
==	==
*-	*-
!!!RDF**kern: > = above
!!!RDF**kern: < = below
!!!EED: Antoni Szymański
!!!EST: 2021-08-02
!!!ENC:Anastazja Marusiak
!!!END:2021-07-05
